public/style/workarea/images/icons/exe-save-icon-green.svg

<svg fill="none" height="20" viewBox="0 0 21 20" width="21" xmlns="http://www.w3.org/2000/svg"><g stroke="#0ba1a1" stroke-linecap="round" stroke-linejoin="round" stroke-width="1.8"><path d="m15.848 17.5h-11.66668c-.44203 0-.86596-.1756-1.17852-.4882-.31256-.3125-.48815-.7364-.48815-1.1785v-11.66663c0-.44203.17559-.86595.48815-1.17851.31256-.31257.73649-.48816 1.17852-.48816h9.16668l4.1666 4.16667v9.16663c0 .4421-.1755.866-.4881 1.1785-.3126.3126-.7365.4882-1.1785.4882z"/><path d="m14.1812 17.5v-6.6667h-8.3333v6.6667"/><path d="m5.8479 2.5v4.16667h6.6667"/></g></svg>

<svg width="21" height="20" viewBox="0 0 21 20" fill="none" xmlns="http://www.w3.org/2000/svg">
<path d="M15.848 17.5H4.18132C3.73929 17.5 3.31536 17.3244 3.0028 17.0118C2.69024 16.6993 2.51465 16.2754 2.51465 15.8333V4.16667C2.51465 3.72464 2.69024 3.30072 3.0028 2.98816C3.31536 2.67559 3.73929 2.5 4.18132 2.5H13.348L17.5146 6.66667V15.8333C17.5146 16.2754 17.3391 16.6993 17.0265 17.0118C16.7139 17.3244 16.29 17.5 15.848 17.5Z" stroke="#0BA1A1" stroke-width="1.8" stroke-linecap="round" stroke-linejoin="round"/>
<path d="M14.1812 17.5V10.8333H5.8479V17.5" stroke="#0BA1A1" stroke-width="1.8" stroke-linecap="round" stroke-linejoin="round"/>
<path d="M5.8479 2.5V6.66667H12.5146" stroke="#0BA1A1" stroke-width="1.8" stroke-linecap="round" stroke-linejoin="round"/>
</svg>
